public/logos/hbo.svg

<svg width="512" height="211" viewBox="0 0 512 211" fill="none" xmlns="http://www.w3.org/2000/svg">
<path fill-rule="evenodd" clip-rule="evenodd" d="M150.226 209.772H94.1703V129.567H57.7825V209.772H0V3.05493H57.7825V79.9519H94.1703V3.05493H150.226V209.772Z" fill="black"/>
<path fill-rule="evenodd" clip-rule="evenodd" d="M407.037 146.258C429.783 146.258 448.224 127.776 448.224 104.971C448.224 82.1712 429.783 63.6859 407.037 63.6859C384.288 63.6859 365.85 82.1712 365.85 104.971C365.85 127.776 384.288 146.258 407.037 146.258ZM354.644 104.971C354.644 75.9675 378.1 52.4528 407.037 52.4528C435.973 52.4528 459.433 75.9675 459.433 104.971C459.433 133.979 435.973 157.492 407.037 157.492C378.1 157.492 354.644 133.979 354.644 104.971ZM281.689 104.971C288.172 104.148 298.979 96.7175 302.786 91.9748C301.449 97.8555 301.346 114.876 302.91 120.756C298.565 114.051 288.277 105.797 281.689 104.971ZM244.023 49.3702C252.257 49.3702 258.741 57.5177 258.741 66.803C258.741 76.0884 252.257 84.2409 244.023 84.2409H215.724V49.3702H244.023ZM243.92 126.841C252.152 126.841 258.637 134.993 258.637 144.275C258.637 153.561 252.152 161.71 243.92 161.71H215.62V126.841H243.92ZM407.003 210.791C464.667 210.768 511.594 162.741 511.581 104.93C511.569 45.8995 464.667 0.0437498 407.003 3.05556e-05C349.405 -0.0415954 319.975 42.4583 312.704 59.6127C312.771 33.8608 287.451 3.46467 257.832 3.43216H162.406V209.763L251.376 209.781C287.246 209.781 312.77 178.625 312.814 151.908C321.002 168.722 349.405 210.811 407.003 210.791Z" fill="black"/>
</svg>

<svg xmlns="http://www.w3.org/2000/svg" width="512" height="211" fill="none" viewBox="0 0 512 211"><path fill="#000" fill-rule="evenodd" d="M150.226 209.772H94.17v-80.205H57.783v80.205H0V3.055h57.783v76.897H94.17V3.055h56.056zM407.037 146.258c22.746 0 41.187-18.482 41.187-41.287 0-22.8-18.441-41.285-41.187-41.285-22.749 0-41.187 18.485-41.187 41.285 0 22.805 18.438 41.287 41.187 41.287m-52.393-41.287c0-29.004 23.456-52.518 52.393-52.518 28.936 0 52.396 23.515 52.396 52.518 0 29.008-23.46 52.521-52.396 52.521-28.937 0-52.393-23.513-52.393-52.521m-72.955 0c6.483-.823 17.29-8.254 21.097-12.996-1.337 5.88-1.44 22.901.124 28.781-4.345-6.705-14.633-14.959-21.221-15.785m-37.666-55.6c8.234 0 14.718 8.147 14.718 17.432s-6.484 17.438-14.718 17.438h-28.299V49.37zm-.103 77.47c8.232 0 14.717 8.152 14.717 17.434 0 9.286-6.485 17.435-14.717 17.435h-28.3v-34.869zm163.083 83.95c57.664-.023 104.591-48.05 104.578-105.861C511.569 45.9 464.667.044 407.003 0c-57.598-.042-87.028 42.458-94.299 59.613.067-25.752-25.253-56.148-54.872-56.18h-95.426v206.33l88.97.018c35.87 0 61.394-31.156 61.438-57.873 8.188 16.814 36.591 58.903 94.189 58.883" clip-rule="evenodd"/></svg>
